X:1
T:Title
%%score { ( 1 4 ) | ( 2 3 ) }
L:1/8
M:4/4
K:Eb
V:1 treble nm="Grand Piano"
V:4 treble 
V:2 bass 
V:3 bass 
V:1
 z4 z2[Q:1/4=104] [GB]A | G4- GFGA | [Ac]2 [GB]4 z G | [EGB]4- [EGB][C_G=A][Gc][=GB] | %4
[M:3/4] [DF]6 |[M:1/4] BA |[M:4/4] G3 G [FA][EG][FA][GB] |[M:9/8] c2 d- d [Ge]2- [Ge] .[B,GB]2 | %8
[M:4/4] [Fd]3 [GB] [Ac]2 [Ad]2 |[M:3/4] [Ge]6 |[M:1/4] [GB]2 |[M:4/4] d2- [Ad-]2 [Ad]2 [AB]2 | %12
 e2- [Ae-]2 [Ge]2 [Ge]2 | [Fd]2 [Ge]2 [Fd]2 [Ec]2 |[M:3/4] [DB]6 |[M:1/4] [EG][FA] | %16
[M:4/4] [GB]3 [Ac] [GB]2 [EG]2 |[M:9/8] [DA]2 [GB]- [GB] c2- cBe |[M:4/4] d3 [GB] [Ac]2 [Ad]2 | %19
[M:3/4] [Ge]6 |] %20
V:2
 z4 z2 z F | [E,B,E]4- [E,B,E][A,B,D][G,B,E][F,B,F] | [E,E]2 [E,E]4 z B, | E,4- E,E,[E,=A,][E,B,] | %4
[M:3/4] [B,,B,]6 |[M:1/4] [B,,B,]2 |[M:4/4] [E,B,E]3 [E,B,E] [E,B,][E,B,][E,B,][E,E] | %7
[M:9/8][K:treble] A2- [F,B,A]- [F,B,A][K:bass] [E,B,]2- [E,B,] z[K:treble] e | %8
[M:4/4][K:bass] [B,,B,]3 [B,,B,] [B,,B,]2 [B,,B,]2 |[M:3/4] [E,B,]6 |[M:1/4] [E,B,]2 | %11
[M:4/4] [B,,B,]2 [B,,B,]2 [B,,B,]2 [D,B,]2 | [E,B,]2 [E,C]2 [E,B,]2 [E,B,]2 | %13
 [F,B,]2 [F,B,]2 [F,=A,]2 [F,A,]2 |[M:3/4] [B,,B,]6 |[M:1/4] [E,B,]2 | %16
[M:4/4] [E,E]3 [E,E] [E,E]2 [E,B,]2 | %17
[M:9/8] [F,B,]2 [E,E]- [E,E][K:treble] [A,EA]2- [A,EA] [B,EG]2 | %18
[M:4/4] [B,F]3[K:bass] [B,,B,] [B,,B,]2 [B,,B,]2 |[M:3/4] [E,B,]6 |] %20
V:3
 z4 z2 [E,E]2 | x8 | z4 z2 G,2 | x8 |[M:3/4] x6 |[M:1/4] x2 |[M:4/4] x8 | %7
[M:9/8][K:treble] .[A,E]3 z3[K:bass] z E,2[K:treble] |[M:4/4][K:bass] x8 |[M:3/4] x6 |[M:1/4] x2 | %11
[M:4/4] x8 | x8 | x8 |[M:3/4] x6 |[M:1/4] x2 |[M:4/4] x8 |[M:9/8] x4[K:treble] x5 | %18
[M:4/4] x3[K:bass] x5 |[M:3/4] x6 |] %20
V:4
 x8 | x8 | z4 z2 E2 | x8 |[M:3/4] x6 |[M:1/4] D2 |[M:4/4] x8 |[M:9/8] x9 |[M:4/4] x8 |[M:3/4] x6 | %10
[M:1/4] x2 |[M:4/4] F2 z2 z4 | G2 z2 z4 | x8 |[M:3/4] x6 |[M:1/4] x2 |[M:4/4] x8 |[M:9/8] x9 | %18
[M:4/4] x8 |[M:3/4] x6 |] %20

